!!!OTL: Zwei Koenigskinder
!!!ARE: Europa, Mitteleuropa, Deutschland
!!!SCT: A0026A
!!!YEM: Copyright 1995, estate of Helmut Schaffrath.
**kern
*ICvox
*Ivox
*M3/4
*k[b-e-]
*g:
{4g
=1
4a
4b-
4g
=2
4a
4b-
4g
=3
4a
4b-
4cc
=4
2dd}
{4cc
=5
4b-
4a
4b-
=6
4g
4a
4b-
=7
[2.a
=8
4a]
4r}
{4dd
=9
4dd
4ee-
4dd
=10
4cc
4b-
4a
=11
2.b-
=12
2a}
{4a
=13
2g
4g
=14
4d
4e
4f#
=15
[2.g
=16
4g]
4r}
==
!!!AGN: Romanze, Ballade, Lied
!! Svenska Folk - Visor, Stockholm 1814-16 No. 30
!!!ONB: ESAC (Essen Associative Code) Database: ALTDEU
!!!AMT: simple triple
!!!AIN: vox
!!!EED: Helmut Schaffrath
!!!EEV: 1.0
*-
